icons/cellphone-two-color.svg

<?xml version="1.0" encoding="UTF-8"?><svg id="uuid-9ce79a77-9fc8-4814-a4f9-18019cbb04f3" xmlns="http://www.w3.org/2000/svg" viewBox="0 0 50 50"><path d="M35.29,2.81H17.21c-1.75,0-3.17,1.42-3.17,3.17V46.02c0,1.75,1.42,3.17,3.17,3.17h18.07c1.75,0,3.17-1.42,3.17-3.17V5.98c0-1.75-1.42-3.17-3.17-3.17Zm-1.86,34.77H16.08V9.25h17.35v28.33Z" fill="#ffcd00"/><g><path d="M33.83,.81H15.67c-2.28,0-4.13,1.85-4.13,4.13V45.06c0,2.28,1.85,4.13,4.13,4.13h18.15c2.28,0,4.13-1.85,4.13-4.13V4.94c0-2.28-1.85-4.13-4.13-4.13Zm3.13,44.25c0,1.72-1.4,3.13-3.13,3.13H15.67c-1.72,0-3.13-1.4-3.13-3.13V4.94c0-1.72,1.4-3.13,3.13-3.13h18.15c1.72,0,3.13,1.4,3.13,3.13V45.06Z"/><path d="M33.92,8.25H15.58c-.28,0-.5,.22-.5,.5v29.33c0,.28,.22,.5,.5,.5h18.35c.28,0,.5-.22,.5-.5V8.75c0-.28-.22-.5-.5-.5Zm-.5,29.33H16.08V9.25h17.35v28.33Z"/><path d="M24.75,40.77c-1.35,0-2.44,1.1-2.44,2.44s1.1,2.44,2.44,2.44,2.44-1.1,2.44-2.44-1.1-2.44-2.44-2.44Z"/><path d="M22.25,5.48h5.13c.28,0,.5-.22,.5-.5s-.22-.5-.5-.5h-5.13c-.28,0-.5,.22-.5,.5s.22,.5,.5,.5Z"/><path d="M20.13,5.59c.34,0,.61-.27,.61-.61s-.27-.61-.61-.61-.61,.27-.61,.61,.27,.61,.61,.61Z"/></g></svg>

<svg id="fb61615f-46ff-4701-a3f3-bc950403bd79" data-name="ICONS" xmlns="http://www.w3.org/2000/svg" viewBox="0 0 50 50"><path d="M35.29,2.81H17.21A3.17,3.17,0,0,0,14,6V46a3.17,3.17,0,0,0,3.17,3.17H35.29A3.17,3.17,0,0,0,38.46,46V6A3.17,3.17,0,0,0,35.29,2.81ZM33.42,37.58H16.08V9.25H33.42Z" fill="#fdd600"/><path d="M33.83.81H15.67a4.14,4.14,0,0,0-4.13,4.13V45.06a4.14,4.14,0,0,0,4.13,4.13H33.83A4.14,4.14,0,0,0,38,45.06V4.94A4.14,4.14,0,0,0,33.83.81ZM37,45.06a3.13,3.13,0,0,1-3.13,3.13H15.67a3.13,3.13,0,0,1-3.13-3.13V4.94a3.13,3.13,0,0,1,3.13-3.13H33.83A3.13,3.13,0,0,1,37,4.94Z" fill="#231f20"/><path d="M33.92,8.25H15.58a.5.5,0,0,0-.5.5V38.08a.5.5,0,0,0,.5.5H33.92a.5.5,0,0,0,.5-.5V8.75A.5.5,0,0,0,33.92,8.25Zm-.5,29.33H16.08V9.25H33.42Z" fill="#231f20"/><path d="M24.75,40.77a2.44,2.44,0,1,0,2.44,2.44A2.44,2.44,0,0,0,24.75,40.77Z" fill="#231f20"/><path d="M22.25,5.48h5.13a.5.5,0,0,0,0-1H22.25a.5.5,0,0,0,0,1Z" fill="#231f20"/><path d="M20.13,5.59A.61.61,0,0,0,20.74,5a.61.61,0,0,0-.61-.61.62.62,0,0,0-.61.61A.61.61,0,0,0,20.13,5.59Z" fill="#231f20"/></svg>
